X:747
T:A Trip o'er Tweed
C:John Young, 1713
L:1/8
M:9/8
S:Colin Hume's website,  colinhume.com  - chords can also be printed below the stave.
Q:3/8=112
K:G
P:A
|: "G"G3 "/"B2c "/"dBG | "G/B"gfg "C"efg "D"a2d | "C"ege "G/B"dBe "G"dBG | "C"edc "D7"B3/A/G "G"G3 :|
P:B
|: "D7"F3 "/"A2B "/"c2d | "Em"Bef "/"gfe "B7"fBb | "Am"a2g "/"fga "Em"bag | "Am"fge "B7"Be^d "Em"e2f |
"C"ge2 "D"d2c "Em"B2c | "G"dcB "Am"ABG "D"F2D | "G"Gd2 "Em"Be2 "G/D"dg2 | "Em"BeA "D7"A2G "G"G3 :|

